public/assets/images/services/approach/done.svg

<svg width="164" height="164" viewBox="0 0 164 164" fill="none" xmlns="http://www.w3.org/2000/svg">
<path d="M116.179 45.6904C115.605 45.8544 97.0898 59.0802 95.5581 60.2421C94.0263 61.4041 91.012 65.5082 91.404 65.8829C92.0108 66.4635 97.1997 64.5848 97.8943 64.1822C98.5888 63.7796 117.938 50.1168 118.886 49.4616C119.834 48.8064 116.757 45.5272 116.179 45.6904Z" fill="#71B6F6"/>
<path d="M82.0309 88.0622C73.8259 88.5329 66.3106 81.9942 54.5879 78.3255C49.6679 79.1824 40.347 78.7085 39.0079 75.6712C21.4829 78.2673 6.69991 89.3652 4.40391 96.8272C2.20385 103.967 12.3743 118.078 17.2558 122.687C19.4107 110.432 22.407 97.3824 27.1671 85.8687C27.4082 85.2849 27.9469 85.6424 27.7641 86.2066C22.5489 102.268 18.8544 118.784 16.7293 135.536C25.9953 141.015 55.5153 142.294 65.0798 139.95C65.1577 135.907 65.7284 122.334 66.2549 111.832C62.1459 111.504 58.0467 111.026 53.9803 110.356C53.3309 110.25 53.617 109.563 54.2534 109.649C61.9007 110.675 77.3774 112.474 86.3154 110.025C91.8094 108.52 103.088 102.727 112.063 75.4211C109.467 73.4736 105.053 71.7926 100.705 71.3211C99.5174 74.743 86.0677 87.8302 82.0309 88.0622Z" fill="#71B6F6"/>
<path d="M77.6167 30.3006C82.0846 33.4289 86.0916 37.1684 89.5206 41.4099C90.0643 42.0553 90.6686 41.5477 91.0786 41.0204C96.5283 33.9783 99.4426 29.8455 106.727 23.8004C107.301 23.3265 106.652 22.6328 106.039 23.0624C101.047 26.5507 93.3697 33.902 90.0921 39.0943C86.5906 35.3006 82.5908 31.9993 78.2021 29.2805C77.3616 28.7672 76.8008 29.7577 77.6167 30.3006Z" fill="#71B6F6"/>
<path d="M82.5242 29.5282C83.9387 29.6922 94.2067 29.2584 95.8082 29.2297C96.6068 29.2149 96.6659 27.939 95.8541 27.9702C94.2379 28.0317 83.8821 28.2711 82.4307 28.5286C81.8362 28.6335 81.992 29.465 82.5242 29.5282Z" fill="#71B6F6"/>
<path d="M79.1357 60.7554C78.4231 60.434 77.8376 61.404 78.4871 61.8066C82.1203 64.071 85.5905 66.5869 88.8724 69.3359C89.8629 70.1633 91.0815 68.5872 90.1024 67.7525C86.7929 64.9175 83.1012 62.5621 79.1357 60.7554Z" fill="#71B6F6"/>
<path d="M100.251 44.2168C100.286 41.1591 99.9874 37.8815 99.971 34.8049C99.971 34.0259 98.887 34.1563 98.8935 34.9344C98.9203 38.1931 98.9476 41.4493 98.9755 44.7031C96.5286 44.7031 85.4882 45.0024 82.9691 45.4755C82.7034 42.6785 82.5763 39.8594 82.1647 37.0771C82.1438 36.9669 82.0829 36.8684 81.9938 36.8003C81.9046 36.7323 81.7935 36.6995 81.6817 36.7084C81.5699 36.7172 81.4653 36.767 81.388 36.8482C81.3107 36.9294 81.266 37.0364 81.2627 37.1485C81.3931 39.8807 81.5087 42.672 81.7178 45.4042C81.8293 46.8581 81.8342 46.7613 83.2684 46.6572C88.2343 46.2955 93.2905 46.0012 98.2687 45.9561C99.7053 45.9421 100.229 46.0405 100.251 44.2168Z" fill="#71B6F6"/>
<path d="M94.0777 55.3877C91.3315 55.423 88.3377 55.4656 85.6071 55.7764C82.7576 56.1044 82.9585 56.3438 83.1602 58.9121C83.2067 59.5874 83.2933 60.2593 83.4194 60.9244C83.4344 61.049 83.4945 61.1637 83.5884 61.247C83.6823 61.3303 83.8035 61.3762 83.929 61.3762C84.0545 61.3762 84.1756 61.3303 84.2695 61.247C84.3634 61.1637 84.4236 61.049 84.4386 60.9244C84.4386 60.457 84.2115 57.2827 84.2746 57.2048C84.3378 57.1269 92.9601 56.5218 93.8809 56.4586C94.6747 56.4037 94.869 55.3771 94.0777 55.3877Z" fill="#71B6F6"/>
<path d="M84.8868 67.9469C84.859 67.8225 84.7871 67.7124 84.6842 67.6372C84.5814 67.5619 84.4548 67.5265 84.3278 67.5377C84.2009 67.5488 84.0823 67.6056 83.9942 67.6977C83.906 67.7897 83.8543 67.9106 83.8486 68.0379C83.8849 69.7378 84.0083 71.4347 84.2185 73.1219C84.2065 73.2815 84.2583 73.4393 84.3625 73.5607C84.4667 73.6822 84.6149 73.7573 84.7744 73.7697C84.8564 73.7762 91.1384 73.6147 95.7329 73.1801C96.908 73.0694 96.1937 72.0173 95.5058 72.0706C92.2602 72.3166 88.626 72.447 85.3673 72.5438C85.2377 70.9653 85.127 69.4598 84.8868 67.9469Z" fill="#71B6F6"/>
<path d="M57.0024 53.0245C55.419 52.9277 54.4776 54.881 55.3279 55.0564C55.7691 55.1475 55.9118 54.0437 56.931 54.0503C57.0671 54.0598 57.2013 54.0148 57.3042 53.9253C57.407 53.8358 57.4702 53.7091 57.4796 53.5731C57.4891 53.437 57.4441 53.3028 57.3546 53.1999C57.2651 53.097 57.1384 53.0339 57.0024 53.0245Z" fill="#191919"/>
<path d="M59.2156 51.2721C58.9795 50.7965 58.5596 51.1836 58.6703 51.6354C59.3665 54.416 60.1562 55.965 60.7474 59.0548C61.0656 60.7161 59.5477 59.7034 59.501 61.0023C59.4711 61.9646 59.3736 62.9236 59.2091 63.8723C58.5509 63.7567 57.9488 63.4283 57.4953 62.9375C57.2034 62.5545 56.6974 62.8989 56.9377 63.4114C57.1532 63.81 57.4616 64.1508 57.8367 64.405C58.2118 64.6592 58.6426 64.8193 59.0926 64.8718C58.567 69.0538 56.3571 69.2933 52.8221 68.5618C52.1727 68.4282 51.5224 68.1969 50.8098 68.101C50.4654 68.0551 49.5798 68.7504 51.8939 69.3991C51.8939 70.5225 52.1399 76.2543 52.4588 77.3055C52.5941 77.7467 53.2903 77.6942 53.251 77.1948C53.046 74.5979 52.9648 72.1707 52.923 69.6328C59.975 71.0743 59.8618 66.7578 60.426 61.2278C61.8798 61.0195 61.9454 59.8165 61.724 58.6636C61.228 56.0972 60.3841 53.6104 59.2156 51.2721Z" fill="#191919"/>
<path d="M39.2565 39.3747C37.3705 32.5523 30.0651 25.4905 20.2325 30.6188C10.3999 35.747 11.7045 49.5468 16.9935 55.3877C20.3161 59.0555 23.4846 63.3843 22.9975 66.7463C22.5104 70.1083 27.6855 67.1875 24.9901 56.1724C22.836 47.3705 29.8708 40.0496 35.3746 43.496C36.3838 41.8794 37.7031 40.4787 39.2565 39.3747Z" fill="#191919"/>
<path d="M49.0703 55.6148C50.5389 56.4865 59.6672 49.1221 59.1055 47.4296C54.5955 33.8529 37.8232 37.3739 35.1344 47.0852C32.1176 57.9822 41.0991 66.529 41.6706 66.4544C42.5013 66.3454 45.1146 64.6693 46.0847 61.404C46.5119 61.6541 46.998 61.7859 47.4931 61.7859C47.9881 61.7859 48.4742 61.6541 48.9014 61.404C49.459 61.0867 49.0564 60.4537 48.4668 60.666C47.0302 61.1785 45.4812 60.0166 45.637 57.5377C45.6405 57.1383 45.7496 56.7469 45.9531 56.4031C46.1566 56.0594 46.4473 55.7755 46.7959 55.5803C47.1444 55.3851 47.5383 55.2855 47.9377 55.2916C48.3372 55.2976 48.7279 55.4092 49.0703 55.6148Z" fill="#191919"/>
<path d="M41.2097 67.7197C40.6772 70.1764 40.3923 72.6804 40.3594 75.194C40.3696 75.2981 40.4165 75.3952 40.4916 75.4681C40.5668 75.5409 40.6653 75.5847 40.7697 75.5917C40.8741 75.5987 40.9776 75.5684 41.0618 75.5062C41.146 75.4441 41.2054 75.354 41.2294 75.2522C41.7263 72.8603 41.8034 70.2805 42.2421 67.7943C42.3462 67.2006 41.3212 67.1424 41.2097 67.7197Z" fill="#191919"/>
<path d="M57.9745 56.334C57.6006 55.0334 56.3689 54.9769 56.8519 56.8079C57.2914 58.466 58.3689 57.7017 57.9745 56.334Z" fill="#191919"/>
<path d="M98.0634 56.1593C98.4545 55.7657 101.343 55.5411 101.562 55.4714C102.06 55.3074 101.945 54.5751 101.53 54.4136C100.692 54.0856 98.3233 54.5562 97.5312 54.9876C96.7391 55.4189 96.6063 56.8645 95.9019 58.3824C95.5403 59.1614 95.0556 59.878 94.7399 60.6734C94.5866 61.0613 95.0548 61.3294 95.3894 61.0629C96.9859 59.8051 98.0437 56.179 98.0634 56.1593Z" fill="#191919"/>
<path d="M96.1221 62.9555C96.013 62.9501 95.9056 62.9835 95.8188 63.0499C95.732 63.1163 95.6716 63.2113 95.6483 63.318C95.625 63.4248 95.6403 63.5363 95.6915 63.6328C95.7426 63.7293 95.8264 63.8046 95.9278 63.8452C101.577 65.9148 101.23 69.6811 102.016 70.5757C102.186 70.7692 103.297 71.1825 103.022 69.5917C102.468 66.3822 99.3997 63.2138 96.1221 62.9555Z" fill="#191919"/>
<path d="M107.689 59.1646C109.885 64.5176 109.993 65.8386 109.851 71.6286C109.834 72.2781 110.808 72.5388 110.98 71.8746C111.978 68.0305 110.809 61.8706 108.507 58.6267C108.167 58.1478 107.487 58.6718 107.689 59.1646Z" fill="#191919"/>
<path d="M104.094 60.8719C103.965 62.3266 103.047 62.3151 102.146 62.5857C101.021 62.9235 101.659 63.2343 102.146 63.3516C102.521 63.4572 102.916 63.4669 103.295 63.3798C103.675 63.2926 104.026 63.1114 104.317 62.8528C104.608 62.5942 104.829 62.2665 104.96 61.9C105.091 61.5335 105.128 61.1399 105.067 60.7554C104.931 60.1142 104.149 60.2495 104.094 60.8719Z" fill="#191919"/>
<path d="M144.381 40.6335C145.628 40.5646 145.264 38.6556 144.03 38.7253C135.119 39.2304 126.056 38.6925 117.418 39.2321C116.434 39.2928 116.607 40.7827 117.5 40.8868C122.65 41.4871 139.351 40.918 144.381 40.6335Z" fill="#191919"/>
<path d="M158.868 28.7295C148.251 28.3786 125.863 28.4835 115.997 29.5216C115.192 29.6036 114.971 31.0854 115.939 31.0796C127.232 31.0091 145.851 30.2523 159.05 30.6696C160.31 30.7106 160.102 28.7705 158.868 28.7295Z" fill="#191919"/>
<path d="M157.552 55.8871C144.693 56.9531 129.281 55.6255 117.562 57.0425C116.634 57.1548 116.867 58.735 117.821 58.6825C128.284 58.0568 143.784 58.5062 157.603 57.8518C158.85 57.7887 158.817 55.7821 157.552 55.8871Z" fill="#191919"/>
<path d="M142.746 65.0006C136.735 64.6414 123.43 64.6808 118.392 64.9284C117.451 64.9751 117.315 66.5627 118.294 66.6225C125.798 67.0834 133.989 67.0596 142.635 66.8825C143.655 66.862 143.869 65.067 142.746 65.0006Z" fill="#191919"/>
</svg>

<svg xmlns="http://www.w3.org/2000/svg" fill="none" viewBox="0 0 164 164"><path fill="#71b6f6" d="M116.179 45.69c-.574.164-19.09 13.39-20.62 14.552-1.533 1.162-4.547 5.266-4.155 5.64.607.581 5.796-1.297 6.49-1.7.695-.402 20.044-14.065 20.992-14.72s-2.129-3.935-2.707-3.772M82.03 88.062c-8.204.47-15.72-6.068-27.442-9.736-4.92.856-14.241.383-15.58-2.655C21.483 78.267 6.7 89.365 4.404 96.827c-2.2 7.14 7.97 21.251 12.852 25.86 2.155-12.255 5.151-25.305 9.911-36.818.241-.584.78-.227.597.338a269.6 269.6 0 0 0-11.035 49.329c9.266 5.479 38.786 6.758 48.35 4.414.079-4.043.65-17.616 1.176-28.118a148 148 0 0 1-12.275-1.476c-.65-.106-.363-.793.273-.707 7.648 1.026 23.124 2.825 32.062.376 5.494-1.505 16.773-7.298 25.748-34.604-2.596-1.947-7.01-3.628-11.358-4.1-1.188 3.422-14.637 16.51-18.674 16.741M77.617 30.3A58.3 58.3 0 0 1 89.52 41.41c.543.645 1.148.138 1.558-.39 5.45-7.042 8.364-11.175 15.648-17.22.574-.474-.075-1.167-.688-.738-4.992 3.489-12.67 10.84-15.947 16.032a57 57 0 0 0-11.89-9.814c-.84-.513-1.401.478-.585 1.02"/><path fill="#71b6f6" d="M82.524 29.528c1.415.164 11.683-.27 13.284-.298.799-.015.858-1.291.046-1.26-1.616.062-11.972.301-13.423.559-.595.105-.439.936.093 1m-3.388 31.226c-.713-.321-1.298.649-.649 1.052a92 92 0 0 1 10.385 7.529c.99.827 2.21-.749 1.23-1.584a46.5 46.5 0 0 0-10.966-6.997m21.115-16.538c.035-3.058-.264-6.335-.28-9.412 0-.78-1.084-.649-1.078.13l.082 9.768c-2.446 0-13.487.3-16.006.772-.266-2.797-.393-5.616-.804-8.398a.455.455 0 0 0-.902.072c.13 2.732.246 5.523.455 8.255.111 1.454.116 1.357 1.55 1.253 4.966-.361 10.022-.656 15-.7 1.437-.015 1.961.084 1.983-1.74m-6.173 11.171c-2.746.035-5.74.078-8.47.388-2.85.328-2.65.568-2.448 3.136q.07 1.014.26 2.012a.513.513 0 0 0 1.019 0c0-.467-.227-3.641-.164-3.72.063-.077 8.685-.682 9.606-.745.794-.055.988-1.082.197-1.071"/><path fill="#71b6f6" d="M84.887 67.947a.525.525 0 0 0-1.038.09c.036 1.7.16 3.398.37 5.085a.604.604 0 0 0 .555.648c.082.006 6.364-.155 10.959-.59 1.175-.11.46-1.163-.227-1.11-3.246.247-6.88.377-10.139.474-.13-1.579-.24-3.084-.48-4.597"/><path fill="#191919" d="M57.002 53.025c-1.583-.097-2.524 1.856-1.674 2.031.441.092.584-1.012 1.603-1.006a.514.514 0 1 0 .071-1.025"/><path fill="#191919" d="M59.216 51.272c-.236-.475-.656-.088-.546.363.697 2.781 1.486 4.33 2.077 7.42.319 1.661-1.2.648-1.246 1.947a20.5 20.5 0 0 1-.292 2.87 3.05 3.05 0 0 1-1.714-.934c-.292-.384-.798-.04-.557.473a2.82 2.82 0 0 0 2.155 1.46c-.526 4.183-2.736 4.422-6.27 3.69-.65-.133-1.3-.364-2.013-.46-.345-.046-1.23.65 1.084 1.298 0 1.123.246 6.855.565 7.906.135.442.831.39.792-.11-.205-2.597-.286-5.024-.328-7.562 7.052 1.441 6.939-2.875 7.503-8.405 1.454-.209 1.52-1.412 1.298-2.564a28.7 28.7 0 0 0-2.508-7.392M39.257 39.375c-1.886-6.823-9.192-13.884-19.024-8.756s-8.529 18.928-3.24 24.769c3.323 3.668 6.492 7.996 6.005 11.358s4.688.442 1.992-10.574c-2.154-8.801 4.88-16.122 10.385-12.676a14.4 14.4 0 0 1 3.882-4.121"/><path fill="#191919" d="M49.07 55.615c1.469.871 10.597-6.493 10.035-8.185-4.51-13.577-21.282-10.056-23.97-.345-3.017 10.897 5.964 19.444 6.536 19.37.83-.11 3.444-1.786 4.414-5.051a2.79 2.79 0 0 0 2.816 0c.558-.317.155-.95-.434-.738-1.437.513-2.986-.65-2.83-3.128a2.267 2.267 0 0 1 3.433-1.923M41.21 67.72a37.6 37.6 0 0 0-.85 7.474.442.442 0 0 0 .87.058c.496-2.392.573-4.971 1.012-7.458.104-.593-.92-.652-1.032-.074m16.765-11.386c-.374-1.3-1.606-1.357-1.123.474.44 1.658 1.517.894 1.123-.474m40.088-.174c.391-.394 3.28-.619 3.499-.689.498-.164.383-.896-.032-1.057-.838-.328-3.207.142-3.999.574-.792.43-.925 1.877-1.63 3.394-.36.78-.845 1.496-1.161 2.291-.153.388.315.656.65.39 1.596-1.258 2.654-4.884 2.673-4.904m-1.941 6.797a.461.461 0 0 0-.194.89c5.649 2.069 5.302 5.835 6.088 6.73.17.193 1.281.607 1.006-.984-.554-3.21-3.622-6.378-6.9-6.636m11.567-3.791c2.196 5.353 2.304 6.674 2.162 12.464-.017.65.957.91 1.129.246.998-3.844-.171-10.004-2.473-13.248-.34-.48-1.02.045-.818.538m-3.595 1.707c-.129 1.455-1.047 1.443-1.948 1.714-1.125.337-.487.648 0 .766a2.32 2.32 0 0 0 2.921-2.597c-.136-.64-.918-.506-.973.117m40.287-20.238c1.247-.07.883-1.978-.351-1.909-8.911.505-17.974-.032-26.612.507-.984.06-.811 1.55.082 1.655 5.15.6 21.851.031 26.881-.254m14.487-11.903c-10.617-.351-33.005-.247-42.871.792-.805.082-1.026 1.563-.058 1.558 11.293-.07 29.912-.828 43.111-.41 1.26.04 1.052-1.9-.182-1.94m-1.316 27.157c-12.859 1.066-28.271-.261-39.99 1.155-.928.113-.695 1.693.259 1.64 10.463-.625 25.963-.176 39.782-.83 1.247-.063 1.214-2.07-.051-1.965M142.746 65c-6.011-.359-19.316-.32-24.354-.072-.941.047-1.077 1.635-.098 1.695 7.504.46 15.695.437 24.341.26 1.02-.021 1.234-1.816.111-1.882"/></svg>
